backspace-outline.svg

<svg fill="currentColor" viewBox="0 0 24 24"><path d="M19 15.59 17.59 17 14 13.41 10.41 17 9 15.59 12.59 12 9 8.41 10.41 7 14 10.59 17.59 7 19 8.41 15.41 12zM22 3a2 2 0 0 1 2 2v14a2 2 0 0 1-2 2H7c-.69 0-1.23-.36-1.59-.89L0 12l5.41-8.12C5.77 3.35 6.31 3 7 3zm0 2H7l-4.72 7L7 19h15z"/></svg>

<svg  viewBox="0 0 24 24" fill="currentColor"><path  d="M19,15.59L17.59,17L14,13.41L10.41,17L9,15.59L12.59,12L9,8.41L10.41,7L14,10.59L17.59,7L19,8.41L15.41,12L19,15.59M22,3A2,2 0 0,1 24,5V19A2,2 0 0,1 22,21H7C6.31,21 5.77,20.64 5.41,20.11L0,12L5.41,3.88C5.77,3.35 6.31,3 7,3H22M22,5H7L2.28,12L7,19H22V5Z"/></svg>
